X:1
T:Title
%%score ( 1 2 ) { 3 | 4 }
L:1/8
Q:1/4=115
M:3/4
K:G
V:1 treble nm="Grand Piano, Soprano"
V:2 treble 
V:3 bass nm="Choir Pad, Rex Terrarum, Dunhill, 1903"
V:4 bass 
V:1
 G2 A2 B2 | [Dd]2 [EB]4 | [CA]2 G2- [CG]2 | D2 [CE]4 | [DG]2 [Ec]4 | [EB]2 E4 | [EF]2 G2 B2 | %7
w: By~Thomas~Frederick~Dunhill,~1903 * *|||||||
 [GA]2 [FA]4 | [Gd]2 [Ge]4 | [Gd]2 B2 c2 | [FB]2 [EG]4 | [EA]2 [FB]4 | z2 A2 z2 | [Dd]2 [EB]4 | %14
w: |||||||
 z2 G4- | G6 | [CF]2 [B,G]4- | [B,G]6 |] %18
w: ||||
V:2
 z2 D4 | x6 | z2 B,2 z2 | x6 | x6 | x6 | z2 E4 | x6 | x6 | z2 G4 | x6 | x6 | [EG]2 D2- [DB]2 | x6 | %14
 [CA]2 B,2 C2 | D2 E4 | x6 | x6 |] %18
V:3
 B,2 C2 B,2 | G,2 G,4 | F,2 G,4 | G,2 G,4 | G,2 E,2 F,2 | ^G,2 A,2 B,2 | C2 B,2 D2 | ^C2 D4 | %8
 D2 C4 | D2 D2 C2 | D2 B,4 | E2 ^D4 | E2 C2[K:bass] B,2 | G,2 G,4 | F,2 G,4- | G,2 C4 | A,2 G,4- | %17
 G,6 |] %18
V:4
 G,2 F,2 G,2 | B,,2 C,4 | D,2 G,,2 A,,2 | B,,2 C,4 | B,,2 A,,4 | E,2 C,2 E,2 | A,2 E,4 | A,2 D,4 | %8
 B,2 z2 z2 | B,2 G,2 E,2 | D,2 E,2 D,2 | C,2 B,,4 | E,2 F,2 G,2 | B,,2 C,4 | D,2 E,4 | B,,2 C,4 | %16
 z2 G,,4- | G,,6 |] %18

